!!!COM: Music21
!!!OTL: Pasodoble
!!!OMV: pezas_pasodobles_pasodoble_pasodoble-partitura.musicxml
**kern
*part1
*staff1
*I"Bagpipes
*I'Bag
*clefG^2
*k[]
*M2/4
=1
!LO:TX:a:t=Allegretto
*MM120
!LO:TX:a:t=[quarter]=120
4ccc
4gg
=
4ee
8ccL
8eeJ
=
8ggL
16ffL
16eeJJ
8ddL
8ggJ
=
4ee
4cc
=
4ccc
4gg
=
4ee
8ccL
8eeJ
=
8ggL
8ggJ
8aaL
8bbJ
=
2ccc
=||
*M2/4
!LO:TX:a:t=Allegretto
*MM120
!LO:TX:a:t=[quarter]=120
4ccc
4gg
!!linebreak:original
=
4ee
8ccL
8eeJ
=
8ggL
16ffL
16eeJJ
8ddL
8ggJ
=
4ee
4cc
=
4ccc
4gg
=
4ee
8ccL
8eeJ
=
8ggL
8ggJ
8aaL
8bbJ
=
2ccc
=||
[2gg
=
8ggL]
8eeJ
8ffL
8ggJ
=
[4ff
16ffLL]
16gg
16ff
16eeJJ
!!linebreak:original
=
8ddL
8eeJ
8ffL
8ggJ
=
[2aa
=
8aaL]
8ffJ
8ggL
8aaJ
=
[4gg
16ggLL]
16aa
16gg
16ffJJ
=
8eeL
8ddJ
8eeL
8ffJ
=
[2gg
=
8ggL]
8eeJ
8ffL
8ggJ
=
[2aa
=
8aaL]
8cccJ
8bbL
8aaJ
=
8gg
4gg
8ee
!!linebreak:original
=
8ff
4ff
8dd
!!linebreak:original
=
[2ee
=
2ee]
=||
[2gg
=
8ggL]
8eeJ
8ffL
8ggJ
=
[4ff
16ffLL]
16gg
16ff
16eeJJ
!!pagebreak:original
=
8ddL
8eeJ
8ffL
8ggJ
=
[2aa
=
8aaL]
8ffJ
8ggL
8aaJ
=
[4gg
16ggLL]
16aa
16gg
16ffJJ
=
8eeL
8ddJ
8eeL
8ffJ
=
[2gg
=
8ggL]
8eeJ
8ffL
8ggJ
=
[2aa
=
8aaL]
8cccJ
8bbL
8aaJ
=
8gg
4gg
8ee
!!linebreak:original
=
8ff
4ff
8dd
!!linebreak:original
=
[2ee
=
2ee]
=||
*-
!!!system-decoration: s1,s2
